X:20
T:Saint Anne's Reel
H:used for the Thornden dance Saint Anne's Ring
R:reel
M:4/4
L:1/8
K:D
Ad | f2fg fedB | A2F2 F2dc | B2G2 G2dB | ABAG F2Ad | 
f2fg fedB | A2F2 F2dc | B2G2 Acec | d2f2 d2 |]
ag | f2d2 Acdf | a2g2 g2gf | edcB Aceg | b2a2 abag | 
f2d2 A2df | a2g2 "hold last time" g3f | edcB Aceg | f2d2 d2 |]
